assets/svg/1faef.svg

<svg viewBox="0 0 36 36" fill="none" xmlns="http://www.w3.org/2000/svg">
<path d="M20.95 24.71L18.46 34.16L18.31 34.01L16.52 24.77L18.39 21.83L20.95 24.71Z" fill="#FF7C33"/>
<path d="M19.48 13.79L25.36 6.32996L25.44 6.51996L23.87 15.64L20.88 17.91L19.48 13.79Z" fill="#FF7C33"/>
<path d="M24.5698 11.3399L32.2598 5.81995V5.98995L29.5398 9.93995L31.7898 9.56995L31.7698 9.66995L28.5798 12.8199L24.7898 15.6899L24.5698 11.3399Z" fill="#FFAC33"/>
<path d="M24.5698 11.3399L32.2598 5.81995V5.98995L29.5398 9.93995L31.7898 9.56995L31.7698 9.66995L28.5798 12.8199L24.7898 15.6899L24.5698 11.3399Z" fill="#FF7C33"/>
<path d="M13.83 14.03L13 4.29004L13.19 4.38004L17.98 12.48L17.22 15.88L13.83 14.03Z" fill="#FF7C33"/>
<path d="M31.6901 15.18C30.9901 12.61 28.4701 11.06 26.0701 11.72C25.7501 11.81 25.4401 11.93 25.1601 12.09C25.1301 11.73 25.0701 11.38 24.9601 11.03C23.5101 6.27005 18.3001 5.68005 14.4301 7.42005C10.6101 9.13005 9.07009 11.74 10.0001 15.13C10.1101 15.52 10.2601 15.88 10.4401 16.23C7.80009 17.22 6.51009 19.52 7.25009 22.15C7.86009 24.29 10.0301 25.55 12.5101 25.42C12.3301 26.24 12.4801 27.1 13.0501 27.8C14.1101 29.09 15.8301 29.31 17.2101 28.24C17.4601 28.04 17.6701 27.81 17.8301 27.55C18.0101 28.05 18.2901 28.54 18.6901 29.02C20.9301 31.7 24.0701 30.98 26.8801 28.69C29.5601 26.51 30.5501 23.02 29.2001 20.92C31.2501 20.03 32.3401 17.55 31.6901 15.19V15.18Z" fill="#B5C3C9"/>
<path d="M28.9898 11.9701C28.0898 11.5601 27.0698 11.4501 26.0698 11.7301C25.7498 11.8201 25.4398 11.9401 25.1598 12.1001C25.1298 11.7401 25.0698 11.3901 24.9598 11.0401C23.5098 6.28006 18.2998 5.69006 14.4298 7.43006C10.6098 9.14006 9.06978 11.7501 9.99978 15.1401C10.1098 15.5301 10.2598 15.8901 10.4398 16.2401C9.33978 16.6501 8.47978 17.2901 7.89978 18.0801C7.38978 19.1601 7.37978 20.4701 7.75978 21.4001C8.44978 23.0501 9.92978 23.7701 11.3398 23.9401C12.3298 24.0601 13.1598 24.0601 13.6098 24.0001C14.0098 23.9501 13.1898 24.8801 13.4998 26.2601C13.6598 26.9801 14.3298 27.5501 15.3098 27.6001C16.3398 27.6601 17.0998 26.8901 17.3398 25.8801C17.6098 24.7201 17.7198 24.4801 17.6298 24.0601L18.8298 24.1601C18.8598 26.5201 20.1598 28.7901 22.5598 28.7901C24.9598 28.7901 27.7998 26.0001 28.0498 23.6201C28.3098 21.1701 26.0698 20.0401 26.8098 19.8301C27.5398 19.6201 29.7698 19.2801 30.7398 16.8801C31.5598 14.8501 30.4198 12.9201 28.9898 11.9701Z" fill="#DFE8ED"/>
<path d="M14.7998 23.27L5.27979 30.05V29.84L11.8998 21.27L14.0298 21.36L14.7998 23.27Z" fill="#FF7C33"/>
<path d="M26.9199 16.56C26.8299 15.13 25.5599 14.08 25.3699 14.27C25.0999 14.55 27.0299 16.41 25.1099 17.8C23.9199 18.66 21.9299 18.36 21.2199 17.84C21.6199 18.59 21.7899 19.63 21.4999 21.06C21.2499 22.32 19.7799 23.76 18.0199 23.82C16.3999 23.87 15.1999 22.47 15.0499 21.19C15.0099 20.86 14.9899 20.55 14.9799 20.27C14.5799 20.57 12.9399 21.34 11.8399 20.66C10.5099 19.84 11.2399 18.29 10.9199 18.12C10.6299 17.97 9.96992 20.06 10.9799 21.08C11.6999 21.81 12.5799 21.86 13.6099 21.86C13.6299 22.01 13.6599 22.16 13.6899 22.31C14.3099 24.76 17.1999 26 19.6199 25.39C22.0399 24.78 23.4999 22.3 22.8899 19.86C22.8799 19.82 22.8699 19.78 22.8599 19.75C23.2499 19.75 23.6399 19.71 24.0199 19.61C26.2699 19.01 26.9999 17.73 26.9199 16.56Z" fill="#B5C3C9"/>
<path d="M15.8102 10.77C13.9502 10.33 12.6302 11.87 12.8902 13.48C12.9702 13.94 13.1902 14.38 13.4502 14.66C12.9402 14.91 12.4702 15.48 12.5702 16.19C12.7202 17.26 14.0102 17.56 14.2402 17.45C14.3702 17.39 13.2402 17.3 13.1502 16.22C13.0902 15.49 13.8402 14.93 14.6302 14.86C15.0302 14.82 13.9602 14.48 13.7102 13.38C13.3802 11.95 14.4102 11.32 15.1702 11.28C16.6402 11.21 16.9602 11.94 17.2402 11.98C17.4102 12.01 16.7102 10.99 15.8102 10.77Z" fill="#B5C3C9"/>
<path d="M11.6401 5.76005L10.4701 6.36005L10.2901 7.82005L9.22008 6.77005L7.71008 7.13005L8.31008 5.79005L7.58008 4.55005L9.08008 4.76005L10.0401 3.68005L10.3401 5.09005L11.6401 5.76005Z" fill="#FF7C33"/>
<path d="M4.71996 24.51L3.82996 25.61L4.27996 27.13L2.76996 26.54L1.43996 27.54L1.44996 25.97L0.209961 25.04L1.77996 24.61L2.25996 23.14L3.15996 24.41L4.71996 24.51Z" fill="#FF7C33"/>
<path d="M11.9201 32.4401C11.8201 32.6301 11.5801 32.7001 11.3901 32.6001C11.2001 32.5001 11.1301 32.2601 11.2301 32.0701C11.2301 32.0601 14.4401 26.1301 14.4501 26.1201C14.5601 25.9501 14.7801 25.8901 14.9601 25.9901C15.1401 26.0901 15.2101 26.3001 15.1401 26.4801C15.1401 26.4901 11.9301 32.4201 11.9201 32.4301V32.4401Z" fill="#626365"/>
<path d="M27.46 7.66999C27.34 7.84999 27.09 7.88999 26.91 7.76999C26.73 7.64999 26.69 7.39999 26.82 7.21999C26.82 7.20999 29.8 3.09998 29.81 3.08998C29.94 2.93998 30.17 2.89998 30.33 3.01998C30.49 3.13998 30.54 3.35998 30.45 3.52998C30.45 3.53998 27.47 7.64999 27.46 7.65999V7.66999Z" fill="#626365"/>
<path d="M18.56 8.92994C18.56 9.14994 18.39 9.32994 18.18 9.32994C17.96 9.32994 17.79 9.15994 17.78 8.93994C17.78 8.93994 17.77 4.88994 17.77 3.87994C17.77 3.49994 18.14 3.42994 18.36 3.64994C18.55 3.83994 18.76 4.07994 18.9 4.21994C19.19 4.51994 19.24 4.59994 19.33 4.54994C19.39 4.50994 19.37 4.44994 19.37 4.19994C19.37 3.41994 19.36 1.80994 19.36 1.79994C19.38 1.59994 19.54 1.43994 19.74 1.43994C19.94 1.43994 20.11 1.58994 20.14 1.78994C20.14 1.78994 20.15 4.57994 20.15 5.64994C20.15 6.07994 19.69 6.14994 19.43 5.89994C19.22 5.69994 19.18 5.67994 18.98 5.47994C18.76 5.26994 18.66 5.15994 18.61 5.17994C18.57 5.18994 18.55 5.20994 18.55 5.32994C18.55 6.54994 18.56 8.91994 18.56 8.92994Z" fill="#626365"/>
<path d="M27.1202 22.3C26.9002 22.32 26.7102 22.16 26.6902 21.95C26.6702 21.74 26.8302 21.54 27.0402 21.52C27.0402 21.52 31.0802 21.2 32.0802 21.12C32.4602 21.09 32.5802 21.37 32.4602 21.65C32.3102 21.98 32.3102 21.96 32.0702 22.38C31.8302 22.8 31.6502 23.07 31.7202 23.17C31.7602 23.23 31.7902 23.25 32.0302 23.23C32.8102 23.17 35.1102 22.97 35.1102 22.97C35.3102 22.97 35.4802 23.12 35.5002 23.32C35.5202 23.52 35.3802 23.7 35.1902 23.74C35.1902 23.74 31.8202 24.01 30.7402 24.08C30.3702 24.11 30.1902 23.79 30.4302 23.38C30.7502 22.83 30.8702 22.62 31.0402 22.31C31.1302 22.15 31.1002 21.98 30.8602 22C29.6402 22.09 27.1102 22.3 27.1002 22.3H27.1202Z" fill="#626365"/>
<path d="M6.02988 16.65C6.21988 16.76 6.45988 16.69 6.56988 16.5C6.67988 16.31 6.60988 16.07 6.41988 15.97C6.41988 15.97 4.78988 15.11 3.89988 14.63C3.56988 14.45 3.27988 14.63 3.29988 14.94C3.32988 15.37 3.31988 15.29 3.35988 15.76C3.37988 15.99 3.21988 15.93 3.11988 15.87C3.05988 15.84 2.80988 15.71 2.59988 15.58C2.05988 15.27 1.97988 15.22 1.97988 15.22C1.79988 15.14 1.57988 15.21 1.47988 15.38C1.37988 15.55 1.42988 15.78 1.59988 15.89C1.59988 15.89 2.58988 16.44 3.53988 16.94C3.86988 17.11 4.22988 16.96 4.19988 16.49C4.17988 16.12 4.19988 16.43 4.15988 16.03C4.11988 15.63 4.36988 15.78 4.78988 15.99C5.78988 16.5 6.02988 16.64 6.02988 16.64V16.65Z" fill="#626365"/>
<path d="M31.7902 30.55C33.0502 29.05 28.4902 22.98 19.6002 16.32C14.8802 12.86 10.9502 10.53 7.41018 9.15C2.46018 7.23 2.15018 9.25 2.98018 10.95C3.44018 11.89 3.92018 12.6 4.73018 13.59C4.96018 13.88 5.35018 13.95 5.63018 13.73C5.87018 13.54 5.86018 13.14 5.69018 12.93C3.22018 9.78 3.18018 8.9 6.71018 10.1C9.48018 10.97 14.1802 13.66 18.9702 17.29C26.8602 23.15 30.5602 28.51 30.5202 29.49C30.5002 30.03 29.2302 29.72 27.4802 29.05C27.3802 29.01 26.8602 28.97 26.7102 29.42C26.5602 29.87 26.9402 30.2 27.0902 30.26C30.7602 31.74 31.5102 30.89 31.8002 30.55H31.7902Z" fill="#8F80EB"/>
<path d="M35.7502 17.5801C35.4202 15.4401 27.6402 14.0201 18.4502 14.6901C9.03016 15.3801 1.65016 17.6801 2.02016 19.9701C2.31016 21.7901 7.30016 22.4501 7.30016 22.4501C7.30016 22.4501 7.10016 21.8101 7.06016 21.4901C6.42016 21.5001 3.64016 20.7901 3.40016 19.9901C3.29016 19.6201 3.37016 18.9201 6.52016 17.9401C8.87016 17.2101 12.3702 16.3401 18.7702 15.8801C25.3102 15.4101 34.1902 16.3701 34.3902 17.8001C34.4802 18.4901 32.9202 19.2001 31.2002 19.7501C31.0202 19.8101 30.7202 20.1201 30.8802 20.4701C31.0502 20.8401 31.5502 20.7401 31.6902 20.6801C34.7402 19.7201 35.8602 18.4201 35.7302 17.5901L35.7502 17.5801Z" fill="#8F80EB"/>
</svg>

<svg xmlns="http://www.w3.org/2000/svg" viewBox="0 0 36 36"><path fill="#ff7c33" d="m20.95 24.71-2.49 9.45-.15-.15-1.79-9.24 1.87-2.94zm-1.47-10.92 5.88-7.46.08.19-1.57 9.12-2.99 2.27z"/><path fill="#ffac33" d="m24.57 11.34 7.69-5.52v.17l-2.72 3.95 2.25-.37-.02.1-3.19 3.15-3.79 2.87z"/><path fill="#ff7c33" d="m24.57 11.34 7.69-5.52v.17l-2.72 3.95 2.25-.37-.02.1-3.19 3.15-3.79 2.87zm-10.74 2.69L13 4.29l.19.09 4.79 8.1-.76 3.4z"/><path fill="#b5c3c9" d="M31.69 15.18c-.7-2.57-3.22-4.12-5.62-3.46-.32.09-.63.21-.91.37-.03-.36-.09-.71-.2-1.06-1.45-4.76-6.66-5.35-10.53-3.61-3.82 1.71-5.36 4.32-4.43 7.71.11.39.26.75.44 1.1-2.64.99-3.93 3.29-3.19 5.92.61 2.14 2.78 3.4 5.26 3.27-.18.82-.03 1.68.54 2.38 1.06 1.29 2.78 1.51 4.16.44.25-.2.46-.43.62-.69.18.5.46.99.86 1.47 2.24 2.68 5.38 1.96 8.19-.33 2.68-2.18 3.67-5.67 2.32-7.77 2.05-.89 3.14-3.37 2.49-5.73z"/><path fill="#dfe8ed" d="M28.99 11.97a4.24 4.24 0 0 0-3.83.13c-.03-.36-.09-.71-.2-1.06-1.45-4.76-6.66-5.35-10.53-3.61-3.82 1.71-5.36 4.32-4.43 7.71.11.39.26.75.44 1.1-1.1.41-1.96 1.05-2.54 1.84-.51 1.08-.52 2.39-.14 3.32.69 1.65 2.17 2.37 3.58 2.54.99.12 1.82.12 2.27.06.4-.05-.42.88-.11 2.26.16.72.83 1.29 1.81 1.34 1.03.06 1.79-.71 2.03-1.72.27-1.16.38-1.4.29-1.82l1.2.1c.03 2.36 1.33 4.63 3.73 4.63s5.24-2.79 5.49-5.17c.26-2.45-1.98-3.58-1.24-3.79.73-.21 2.96-.55 3.93-2.95.82-2.03-.32-3.96-1.75-4.91"/><path fill="#ff7c33" d="m14.8 23.27-9.52 6.78v-.21l6.62-8.57 2.13.09z"/><path fill="#b5c3c9" d="M26.92 16.56c-.09-1.43-1.36-2.48-1.55-2.29-.27.28 1.66 2.14-.26 3.53-1.19.86-3.18.56-3.89.04.4.75.57 1.79.28 3.22-.25 1.26-1.72 2.7-3.48 2.76-1.62.05-2.82-1.35-2.97-2.63-.04-.33-.06-.64-.07-.92-.4.3-2.04 1.07-3.14.39-1.33-.82-.6-2.37-.92-2.54-.29-.15-.95 1.94.06 2.96.72.73 1.6.78 2.63.78.02.15.05.3.08.45.62 2.45 3.51 3.69 5.93 3.08s3.88-3.09 3.27-5.53c-.01-.04-.02-.08-.03-.11.39 0 .78-.04 1.16-.14 2.25-.6 2.98-1.88 2.9-3.05"/><path fill="#b5c3c9" d="M15.81 10.77c-1.86-.44-3.18 1.1-2.92 2.71.08.46.3.9.56 1.18-.51.25-.98.82-.88 1.53.15 1.07 1.44 1.37 1.67 1.26.13-.06-1-.15-1.09-1.23-.06-.73.69-1.29 1.48-1.36.4-.04-.67-.38-.92-1.48-.33-1.43.7-2.06 1.46-2.1 1.47-.07 1.79.66 2.07.7.17.03-.53-.99-1.43-1.21"/><path fill="#ff7c33" d="m11.64 5.76-1.17.6-.18 1.46-1.07-1.05-1.51.36.6-1.34-.73-1.24 1.5.21.96-1.08.3 1.41zM4.72 24.51l-.89 1.1.45 1.52-1.51-.59-1.33 1 .01-1.57-1.24-.93 1.57-.43.48-1.47.9 1.27z"/><path fill="#626365" d="M11.92 32.44c-.1.19-.34.26-.53.16a.393.393 0 0 1-.16-.53c0-.01 3.21-5.94 3.22-5.95.11-.17.33-.23.51-.13s.25.31.18.49c0 .01-3.21 5.94-3.22 5.95zM27.46 7.67c-.12.18-.37.22-.55.1a.387.387 0 0 1-.09-.55c0-.01 2.98-4.12 2.99-4.13.13-.15.36-.19.52-.07s.21.34.12.51c0 .01-2.98 4.12-2.99 4.13zm-8.9 1.26c0 .22-.17.4-.38.4a.4.4 0 0 1-.4-.39s-.01-4.05-.01-5.06c0-.38.37-.45.59-.23.19.19.4.43.54.57.29.3.34.38.43.33.06-.04.04-.1.04-.35 0-.78-.01-2.39-.01-2.4.02-.2.18-.36.38-.36s.37.15.4.35c0 0 .01 2.79.01 3.86 0 .43-.46.5-.72.25-.21-.2-.25-.22-.45-.42-.22-.21-.32-.32-.37-.3-.04.01-.06.03-.06.15 0 1.22.01 3.59.01 3.6m8.56 13.37a.393.393 0 0 1-.43-.35.4.4 0 0 1 .35-.43l5.04-.4c.38-.03.5.25.38.53-.15.33-.15.31-.39.73s-.42.69-.35.79c.04.06.07.08.31.06.78-.06 3.08-.26 3.08-.26.2 0 .37.15.39.35s-.12.38-.31.42c0 0-3.37.27-4.45.34-.37.03-.55-.29-.31-.7.32-.55.44-.76.61-1.07.09-.16.06-.33-.18-.31-1.22.09-3.75.3-3.76.3zM6.03 16.65c.19.11.43.04.54-.15s.04-.43-.15-.53c0 0-1.63-.86-2.52-1.34-.33-.18-.62 0-.6.31.03.43.02.35.06.82.02.23-.14.17-.24.11-.06-.03-.31-.16-.52-.29-.54-.31-.62-.36-.62-.36a.4.4 0 0 0-.5.16c-.1.17-.05.4.12.51 0 0 .99.55 1.94 1.05.33.17.69.02.66-.45-.02-.37 0-.06-.04-.46s.21-.25.63-.04c1 .51 1.24.65 1.24.65z"/><path fill="#8f80eb" d="M31.79 30.55c1.26-1.5-3.3-7.57-12.19-14.23-4.72-3.46-8.65-5.79-12.19-7.17-4.95-1.92-5.26.1-4.43 1.8.46.94.94 1.65 1.75 2.64.23.29.62.36.9.14.24-.19.23-.59.06-.8C3.22 9.78 3.18 8.9 6.71 10.1c2.77.87 7.47 3.56 12.26 7.19 7.89 5.86 11.59 11.22 11.55 12.2-.02.54-1.29.23-3.04-.44-.1-.04-.62-.08-.77.37s.23.78.38.84c3.67 1.48 4.42.63 4.71.29z"/><path fill="#8f80eb" d="M35.75 17.58c-.33-2.14-8.11-3.56-17.3-2.89-9.42.69-16.8 2.99-16.43 5.28.29 1.82 5.28 2.48 5.28 2.48s-.2-.64-.24-.96c-.64.01-3.42-.7-3.66-1.5-.11-.37-.03-1.07 3.12-2.05 2.35-.73 5.85-1.6 12.25-2.06 6.54-.47 15.42.49 15.62 1.92.09.69-1.47 1.4-3.19 1.95-.18.06-.48.37-.32.72.17.37.67.27.81.21 3.05-.96 4.17-2.26 4.04-3.09z"/></svg>
